app/images/deposit-eth.svg

<?xml version="1.0" encoding="UTF-8"?>
<svg width="80px" height="78px" viewBox="0 0 80 78" version="1.1" xmlns="http://www.w3.org/2000/svg" xmlns:xlink="http://www.w3.org/1999/xlink">
    <!-- Generator: Sketch 49 (51002) - http://www.bohemiancoding.com/sketch -->
    <title>deposit-eth</title>
    <desc>Created with Sketch.</desc>
    <defs>
        <circle id="path-1" cx="34" cy="34" r="34"></circle>
        <circle id="path-2" cx="17" cy="17" r="17"></circle>
    </defs>
    <g id="Buy-ETH" stroke="none" stroke-width="1" fill="none" fill-rule="evenodd">
        <g id="deposit-Ether" transform="translate(-79.000000, -146.000000)">
            <g id="Group-12" transform="translate(8.000000, 10.000000)">
                <g id="Group-7" transform="translate(71.000000, 122.000000)">
                    <g id="deposit-eth" transform="translate(0.000000, 14.000000)">
                        <g id="Oval">
                            <use fill="#FFFFFF" fill-rule="evenodd" xlink:href="#path-1"></use>
                            <circle stroke="#38393A" stroke-width="3" cx="34" cy="34" r="32.5"></circle>
                        </g>
                        <path d="M34.406509,44.95 L22,37.7 L34.406509,55 L46.8205983,37.7 L34.4039822,44.95 L34.406509,44.95 Z M34.593491,15 L22.186982,35.37 L34.593491,42.6275 L47,35.3775 L34.593491,15 Z" id="Shape" fill="#38393A"></path>
                        <g id="Group-6" transform="translate(46.000000, 44.000000)">
                            <g id="Oval-Copy">
                                <use fill="#FFFFFF" fill-rule="evenodd" xlink:href="#path-2"></use>
                                <circle stroke="#38393A" stroke-width="3" cx="17" cy="17" r="15.5"></circle>
                            </g>
                            <path d="M19.0769231,15.4230769 L25.5,15.4230769 L25.5,19.5769231 L19.0769231,19.5769231 L19.0769231,26 L14.9230769,26 L14.9230769,19.5769231 L8.5,19.5769231 L8.5,15.4230769 L14.9230769,15.4230769 L14.9230769,9 L19.0769231,9 L19.0769231,15.4230769 Z" id="Combined-Shape" fill="#38393A"></path>
                        </g>
                    </g>
                </g>
            </g>
        </g>
    </g>
</svg>

<svg height="78" width="80" xmlns="http://www.w3.org/2000/svg">
    <g fill="none" fill-rule="evenodd">
        <circle cx="34" cy="34" fill="#fff" r="34"/>
        <circle cx="34" cy="34" r="32.5" stroke="#38393a" stroke-width="3"/>
        <path d="M34.407 44.95L22 37.7 34.407 55 46.82 37.7l-12.417 7.25zM34.593 15L22.187 35.37l12.406 7.258L47 35.378z" fill="#38393a"/>
        <g transform="translate(46 44)">
            <circle cx="17" cy="17" fill="#fff" r="17"/>
            <circle cx="17" cy="17" r="15.5" stroke="#38393a" stroke-width="3"/>
            <path d="M19.077 15.423H25.5v4.154h-6.423V26h-4.154v-6.423H8.5v-4.154h6.423V9h4.154z" fill="#38393a"/>
        </g>
    </g>
</svg>
